new/InputPrompts/xbox_rb.svg

<?xml version="1.0" encoding="UTF-8" standalone="no"?>
<svg
   width="80"
   height="53.333"
   version="1.1"
   id="svg356"
   sodipodi:docname="xbox_rb.svg"
   inkscape:version="1.2.2 (732a01da63, 2022-12-09)"
   xmlns:inkscape="http://www.inkscape.org/namespaces/inkscape"
   xmlns:sodipodi="http://sodipodi.sourceforge.net/DTD/sodipodi-0.dtd"
   xmlns="http://www.w3.org/2000/svg"
   xmlns:svg="http://www.w3.org/2000/svg">
  <sodipodi:namedview
     id="namedview358"
     pagecolor="#ffffff"
     bordercolor="#000000"
     borderopacity="0.25"
     inkscape:showpageshadow="2"
     inkscape:pageopacity="0.0"
     inkscape:pagecheckerboard="0"
     inkscape:deskcolor="#d1d1d1"
     showgrid="false"
     inkscape:zoom="6.359375"
     inkscape:cx="2.044226"
     inkscape:cy="39.233415"
     inkscape:window-width="1920"
     inkscape:window-height="1001"
     inkscape:window-x="-9"
     inkscape:window-y="-9"
     inkscape:window-maximized="1"
     inkscape:current-layer="svg356" />
  <defs
     id="defs350" />
  <g
     id="g354"
     transform="matrix(1.6666667,0,0,1.6666667,-13.333334,-26.666667)">
    <path
       stroke="none"
       fill="#FFFFFF"
       d="m 40,39 q 1.6,0 2.8,-1.2 Q 44,36.65 44,35 44,33.6 43.1,32.5 44,31.45 44,30 44,28.4 42.8,27.2 41.6,26 40,26 h -7 v 13 h 7 m 0,-8 h -4 v -2 h 4 q 0.45,0 0.7,0.3 L 41,30 40.7,30.7 Q 40.45,31 40,31 M 16,16 h 24 q 6.6,0 11.3,4.7 Q 56,25.4 56,32 v 8 q 0,8 -8,8 H 16 Q 8,48 8,40 V 24 q 0,-8 8,-8 m 24,20 h -4 v -2 h 4 q 0.45,0 0.7,0.3 L 41,35 40.7,35.7 Q 40.45,36 40,36 m -15,0 1,-0.1 V 36 l 1,3 h 3 L 28.5,34.5 Q 30,33.05 30,31 30,28.95 28.5,27.45 27.05,26 25,26 h -6 v 13 h 3 v -3 h 3 m -3,-3 v -4 h 3 q 0.85,0 1.4,0.55 0.6,0.6 0.6,1.45 0,0.85 -0.6,1.4 Q 25.85,33 25.05,33 H 22"
       id="path352"
       style="fill:#477eeb;fill-opacity:1" />
  </g>
</svg>

<svg width="64" height="64" xmlns="http://www.w3.org/2000/svg" xmlns:xlink="http://www.w3.org/1999/xlink">
  <defs/>
  <g>
    <path stroke="none" fill="#FFFFFF" d="M40 39 Q41.6 39 42.8 37.8 44 36.65 44 35 44 33.6 43.1 32.5 44 31.45 44 30 44 28.4 42.8 27.2 41.6 26 40 26 L33 26 33 39 40 39 M40 31 L36 31 36 29 40 29 Q40.45 29 40.7 29.3 L41 30 40.7 30.7 Q40.45 31 40 31 M16 16 L40 16 Q46.6 16 51.3 20.7 56 25.4 56 32 L56 40 Q56 48 48 48 L16 48 Q8 48 8 40 L8 24 Q8 16 16 16 M40 36 L36 36 36 34 40 34 Q40.45 34 40.7 34.3 L41 35 40.7 35.7 Q40.45 36 40 36 M25 36 L26 35.9 26 36 27 39 30 39 28.5 34.5 Q30 33.05 30 31 30 28.95 28.5 27.45 27.05 26 25 26 L19 26 19 39 22 39 22 36 25 36 M22 33 L22 29 25 29 Q25.85 29 26.4 29.55 27 30.15 27 31 27 31.85 26.4 32.4 25.85 33 25.05 33 L22 33"/>
  </g>
</svg>
